X:189b
T:Simple Gifts (key of G)
S:Jim Coon to CoMandoList TOW
O:old Shaker hymn
R:reel
M:2/4
L:1/16
Q:1/4=60
K:G
DD|"G"G2GA BG Bc|d2dc B2AG|"D7"A2A2 A2G2|AB AF D2DD|!
"G"G2GA BG Bc|d2dc B2AG|"D7"A2A2 B2BA|"G"G2 "D7"GA "G"G4||!
"G"d4 B3A|Bc BA G2GA|B2Bc d2cB|"D7"A2AB A2D2|!
W: 'Tis the gift to be sim-ple, 'tis the gift to be free; 'Tis the
W:gift to come down where we ought to be; And
W:when we find our-selves in the place just right, 'Twill
W:be in the val-ley of love and de-light.
W:When true simplic-i-ty is gain'd,
W:To bow and to bend we shan't be a-shame'd
W: To turn, turn will be our de-light, 'Till by
W:turn-ing, turn-ing we come round right.
"G"GF GA BG Bc|d2dc B2AG|"D7"A2A2 B2BA|"G"G2 "D7"GA "G"G4||!
